icons/op-file-csv-16.svg

<svg width="16" height="16" viewBox="0 0 16 16" fill="none" xmlns="http://www.w3.org/2000/svg">
<path fill-rule="evenodd" clip-rule="evenodd" d="M3.75 1.5C3.61193 1.5 3.5 1.61193 3.5 1.75V14.25C3.5 14.3881 3.61193 14.5 3.75 14.5H13.25C13.3881 14.5 13.5 14.3881 13.5 14.25V4.66421C13.5 4.59791 13.4737 4.53432 13.4268 4.48744L10.5126 1.57322C10.4657 1.52634 10.4021 1.5 10.3358 1.5H3.75ZM2 1.75C2 0.783502 2.7835 0 3.75 0H10.3358C10.7999 0 11.245 0.184374 11.5732 0.512563L14.4874 3.42678C14.8156 3.75497 15 4.20008 15 4.66421V14.25C15 15.2165 14.2165 16 13.25 16H3.75C2.7835 16 2 15.2165 2 14.25V1.75Z" fill="#24292F"/>
<path d="M6.19579 13.5C5.4519 13.5 5 12.937 5 12C5 11.065 5.46059 10.5 6.18188 10.5C6.65116 10.5 7.01441 10.7413 7.18648 11.1595C7.22124 11.2359 7.23862 11.3143 7.23862 11.3867C7.23862 11.5456 7.1465 11.6481 7.00746 11.6481C6.88927 11.6481 6.81453 11.5878 6.75718 11.4471C6.64247 11.1515 6.43738 11.0027 6.18709 11.0027C5.79082 11.0027 5.53532 11.3867 5.53532 11.998C5.53532 12.6173 5.78734 12.9993 6.18883 12.9993C6.45302 12.9993 6.65116 12.8606 6.76413 12.569C6.81801 12.4323 6.88406 12.378 6.99529 12.378C7.14303 12.378 7.24036 12.4866 7.24036 12.6475C7.24036 12.7158 7.22645 12.7802 7.20038 12.8505C7.04396 13.2527 6.67028 13.5 6.19579 13.5Z" fill="#1F2328"/>
<path d="M8.55127 13.5C8.03333 13.5 7.70136 13.2607 7.60055 12.943C7.58317 12.8908 7.57275 12.8345 7.57275 12.7802C7.57275 12.6193 7.66834 12.5127 7.80391 12.5127C7.91167 12.5127 7.98293 12.561 8.0455 12.6897C8.12719 12.9109 8.32359 13.0114 8.56344 13.0114C8.84501 13.0114 9.03619 12.8546 9.03619 12.6414C9.03619 12.4504 8.918 12.3418 8.60341 12.2674L8.33749 12.2071C7.83693 12.0925 7.59186 11.815 7.59186 11.3827C7.59186 10.8519 7.99162 10.5 8.54954 10.5C9.00838 10.5 9.35426 10.7232 9.46549 11.1012C9.47766 11.1414 9.48461 11.1836 9.48461 11.2359C9.48461 11.3807 9.39423 11.4792 9.2604 11.4792C9.14221 11.4792 9.06921 11.4249 9.01012 11.3003C8.92669 11.0811 8.76505 10.9906 8.54954 10.9906C8.29056 10.9906 8.1185 11.1314 8.1185 11.3445C8.1185 11.5235 8.23842 11.634 8.53563 11.7024L8.79982 11.7647C9.33166 11.8874 9.56109 12.1347 9.56109 12.5751C9.56109 13.1421 9.17697 13.5 8.55127 13.5Z" fill="#1F2328"/>
<path d="M10.8703 13.4899C10.6652 13.4899 10.5435 13.3854 10.467 13.1381L9.76833 10.9685C9.75095 10.9122 9.74226 10.8559 9.74226 10.7976C9.74226 10.6267 9.8535 10.5101 10.0186 10.5101C10.1594 10.5101 10.2428 10.5844 10.2863 10.7493L10.8737 12.8264H10.8859L11.4716 10.7433C11.5151 10.5804 11.5933 10.5101 11.7306 10.5101C11.8905 10.5101 12 10.6247 12 10.7895C12 10.8438 11.9913 10.8981 11.9739 10.9524L11.2718 13.1401C11.1953 13.3854 11.0736 13.4899 10.8703 13.4899Z" fill="#1F2328"/>
</svg>

<svg xmlns="http://www.w3.org/2000/svg" width="16" height="16" viewBox="0 0 16 16"><path d="M2 1.75C2 .784 2.783 0 3.75 0h6.586c.464 0 .909.184 1.237.513l2.914 2.914c.329.328.513.773.513 1.237v9.586A1.75 1.75 0 0 1 13.25 16h-9.5A1.75 1.75 0 0 1 2 14.25Zm1.75-.25a.25.25 0 0 0-.25.25v12.5c0 .138.112.25.25.25h9.5a.25.25 0 0 0 .25-.25V4.664a.25.25 0 0 0-.073-.177l-2.914-2.914a.25.25 0 0 0-.177-.073Z"/><path d="M6.196 13.5C5.452 13.5 5 12.937 5 12c0-.935.461-1.5 1.182-1.5.469 0 .832.241 1.004.659a.556.556 0 0 1 .053.228c0 .159-.093.261-.232.261-.118 0-.192-.06-.25-.201-.115-.295-.32-.444-.57-.444-.396 0-.652.384-.652.995 0 .619.252 1.001.654 1.001.264 0 .462-.138.575-.43.054-.137.12-.191.231-.191.148 0 .245.109.245.27a.577.577 0 0 1-.04.203c-.156.402-.53.649-1.004.649Zm2.355 0c-.518 0-.85-.239-.95-.557a.503.503 0 0 1-.028-.163c0-.161.095-.267.231-.267.108 0 .179.048.242.177.081.221.278.321.517.321.282 0 .473-.156.473-.37 0-.191-.118-.299-.433-.374l-.266-.06c-.5-.115-.745-.392-.745-.824 0-.531.4-.883.958-.883.458 0 .804.223.915.601.013.04.02.083.02.135 0 .145-.091.243-.225.243-.118 0-.191-.054-.25-.179-.083-.219-.245-.309-.46-.309-.259 0-.432.14-.432.354 0 .179.12.289.418.357l.264.063c.532.122.761.37.761.81 0 .567-.384.925-1.01.925Zm2.319-.01c-.205 0-.327-.105-.403-.352l-.699-2.169a.591.591 0 0 1-.026-.171c0-.171.112-.288.277-.288.14 0 .224.074.267.239l.588 2.077h.012l.586-2.083c.043-.163.121-.233.259-.233.159 0 .269.115.269.28a.538.538 0 0 1-.026.162l-.702 2.188c-.077.245-.198.35-.402.35Z"/></svg>
